X:95
T:Flora McDonald's Lament
C:arr. Carlo Minasi
M:6/8
L:1/8
B:Chappell's One Hundred Scotch Melodies
B:Arranged for the Concertina by Carlo Minasi
Q:"Andantino  "3/8=70
Z:Peter Dunk 2012
K:Bb
!p!F|([BD]>AB) ([GE]AB)|([cAF]ed/c/) (BA) F|\
(d>cB) (Fed)|(d/c/B[AE]) [B2D2]:|
%
!f!F|(B>cd/e/) (fdB)|F(Fd) ecA|\
([BFD]df) (fed)|(c>de) (edc)|
%
([fd]>[ge][fd]) ([ec][dB][cF])|(fdB) (AHG) !p!F|\
(B>AG) (Fed)|(d/c/BL[AE]) [B2D2]||

